X:1
T:Maple Leaf Rag
T:Maple Leaf Rag
T:Scott Joplin
C:Scott Joplin
%%score { 1 | 2 }
L:1/8
Q:1/4=100
M:2/4
K:Ab
V:1 treble nm="Piano" snm="Pno."
V:2 bass 
V:1
 z |:!f! z/ A/[Ee]/A/ c/[Ee]G/ | [Ee]/G/B/[Ee]/- [Ee]2 | z/ A/[Ee]/A/ c/[Ee]G/ | %4
 [Ee]/G/B/[Ee]/- [Ee]2 | z/ A/_c/[_F_f]/ z/ [Ee]/ z/ [Ee]/ | z/ A/_c/[_F_f]/ z/ [Ee]/ z |!p! z4 | %8
 z/ (A/_c/a/) z/ (a/_c'/a'/) |!<(! [aa'][aa'] [aa'][aa']/[aa']/-!<)! | %10
 [aa']/e'/f'/c'/ e'/[af'][_fa]/- | [fa]/b/[_f_c']/a/ b/[e=c']a/ | [ec']/a/[eb] [ea] z/ [Aa]/- | %13
 [Aa][Aa] [Aa][Aa]/[Aa]/- | [Aa]/e/[Af]/c/ e/[Af][_FA]/- | [_FA]/B/[F_c]/A/ B/[E=c]A/ |1 %16
 [Ec]/A/[EB] [EA] z :|2 [Ec]/A/[EB] [EA] z |:!f!"_stacc." z/ g/[ee']/g/ b/[=d=d']g/ | %19
 [dd']/g/b/[cc']/- [cc']/e/[Bb]/e/ | z/ c/[Aa]/c/ e/[Ff]c/ | [Aa]/c/e/[Ff]/- [Ff]/c/[Ff] | %22
 z/ e/[Gg]/B/ d/[Ff]e/ | [Gg]/B/d/[Ff]/- [Ff]/d/[Ff] | z/ c/[Aa]/c/ e/[Ff]c/ | %25
 [Aa]/c/e/[Ff]/- [Ff]/c/[Ff] | z/ g/[ee']/g/ b/[=d=d']g/ | [dd']/g/b/[cc']/- [cc']/e/[Bb]/e/ | %28
 z/ c/[Aa]/c/ e/[Ff]c/ | [Aa][Aa] [Gg][_G_g] | z/ F/=A/c/ f/c/A/F/ | z/ F/G/B/ [Ff][FBd] | %32
 [=DFAc] z/ [DFAc]/ z/ [_DB]E/ |1 [CA][Ee] [Ee][Ee] :|2 z/ A/c/e/ [Aa] z || %35
!f! z/ A/[Ee]/A/ c/[Ee]G/ | [Ee]/G/B/[Ee]/- [Ee]2 | z/ A/[Ee]/A/ c/[Ee]G/ | [Ee]/G/B/[Ee]/- [Ee]2 | %39
 z/ A/_c/[_F_f]/ z/ [Ee]/ z/ [Ee]/ | z/ A/_c/[_F_f]/ z/ [Ee]/ z |!p! z4 | %42
 z/ (A/_c/a/) z/ (a/_c'/a'/) |!<(! [aa'][aa'] [aa'][aa']/[aa']/-!<)! | %44
 [aa']/e'/f'/c'/ e'/[af'][_fa]/- | [fa]/b/[_f_c']/a/ b/[e=c']a/ | [ec']/a/[eb] [ea] z/ [Aa]/- | %47
 [Aa][Aa] [Aa][Aa]/[Aa]/- | [Aa]/e/[Af]/c/ e/[Af][_FA]/- | [_FA]/B/[F_c]/A/ B/[E=c]A/ | %50
 [Ec]/A/[EB] [EA] z |:[K:Db][M:2/4] [Acea]>[Bcea]- [Bcea]/[ce]/B | %52
 [Acea]>[Bcea]- [Bcea]/[ce]/B/[ce]/ | A/d/B/d/ f/A/d/f/ | B/d/f/A/- A/f/B/f/ | %55
 [Acea]>[Bcea]- [Bcea]/[ce]/B | [Acea]>[Bcea]- [Bcea]/[ce]/B/[ce]/ | A/d/B/d/ f/A/d/f/ | %58
 B/d/f/A/- A/f/=A/[ef]/ | [B=dfb]>[cdfb]- [cdfb]/[df]/c | [B=dfb]>[cdfb]- [cdfb]/[df]/c/[df]/ | %61
 z/ e/[Bb]/e/ g/[cc']e/ | [Bb]/e/g/[cc']/- [cc']/e/[Bb] | [d_fd'][dfd'] [cfc'][Bfb] | %64
 [A=f]/d/e/[Bg]/- [Bg]/B/[Af] | [=Gf]/d/e/[_Gf]/- [Gf]/c/[Ge]/[Fd]/- |1 %66
 [Fd]/-[Aa]f/ [Aa]/f/[Aa]/f/ :|2 [Fd]/d/f/a/ [dd'] z |:[K:Ab] [Aa][Af] [Aa][Af] | %69
 [fa][fb]/[fc']/- [fc']/b/a/f/ | e/f[Ac]/- [Ac]2 | z/ e/[Af]/c/ e/[Af]c/ | [Ge]f/[GB]/- [GB]2 | %73
 z/ d/[Gf]/B/ d/[Gf][Ac]/- | [Ac]/e/[Af]/c/ e/[Af][Ac]/- | [Ac]/e/[Af]/c/ e/[Af]e/ | %76
 [Aa][Af] [Aa][Af] | [fa][fb]/[fc']/- [fc']/b/a/f/ | af e/a[Ac]/- | [Ac]/e/[Af]/c/ e/[Af][FA]/- | %80
 [FA]/B/[FA] [_FA][FB]/[EA]/- | [EA]/B/[Ec]/A/ B/[Ec][=DA]/- | [=DA]/B/[Dc]/A/ z/ [_DB]E/ |1 %83
 [CA][Ee] [Ee][Ee] :|2 [CA][Gde] [Acea] |] %85
V:2
 [E,,E,] |: [A,,A,][E,A,C] [E,A,C][=A,,=A,] | [B,,B,][E,G,D] [E,G,D][E,,E,] | %3
 [A,,A,][E,A,C] [E,A,C][=A,,=A,] | [B,,B,][E,G,D] [E,G,D][E,,E,] | [_F,,_F,]2 [E,,E,][E,,E,] | %6
 [_F,,_F,]2 [E,,E,] z | A,,,/ (A,,/_C,/A,/) A,,/ (A,/_C/A/) | A, z A z | %9
[K:treble]!mf! [=DFA=B][DFAB] [DFAB][DFAB] | [EAc][EAc] [EAc][EAc] | [_FA_c][FAc] [EA=c][EAc] | %12
 [EAc][EGd] [Ac] z |[K:bass] [=D,F,A,=B,][D,F,A,B,] [D,F,A,B,][D,F,A,B,] | %14
 [E,A,C][E,A,C] [E,A,C][E,A,C] | [_F,A,_C][F,A,C] [E,A,=C][E,A,C] |1 %16
 [E,A,C][E,G,D] [A,C][E,,E,] :|2 [E,A,C][E,G,D] [A,C][=A,,=A,] |: [B,,B,][E,G,D] [E,,E,][E,G,D] | %19
 [B,,B,][E,G,D] [E,,E,][G,,G,] | [A,,A,][E,A,C] [E,,E,][E,A,C] | [A,,A,][E,A,C] [A,,A,][=A,,=A,] | %22
 [B,,B,][E,G,D] [E,,E,][E,G,D] | [B,,B,][E,G,D] [B,,B,][=B,,=B,] | [C,C][E,A,C] [E,,E,][E,A,C] | %25
 [A,,A,][E,A,C] [A,,A,][=A,,=A,] | [B,,B,][E,G,D] [E,,E,][E,G,D] | [B,,B,][E,G,D] [E,,E,][G,,G,] | %28
 [A,,A,][E,A,C] [E,,E,][E,A,C] | [A,,A,][A,,A,] [G,,G,][_G,,_G,] | %30
 [F,,F,][F,,F,] [=A,,=A,][A,,A,] | [B,,B,][F,B,D] [F,B,D][F,B,D] | %32
 [B,,F,B,][B,,F,B,] [E,,E,][G,,G,] |1 [A,,A,][E,A,C] [E,A,C][=A,,=A,] :|2 %34
 [A,,A,][A,CE] [A,CE][E,,E,] || [A,,A,][E,A,C] [E,A,C][=A,,=A,] | [B,,B,][E,G,D] [E,G,D][E,,E,] | %37
 [A,,A,][E,A,C] [E,A,C][=A,,=A,] | [B,,B,][E,G,D] [E,G,D][E,,E,] | [_F,,_F,]2 [E,,E,][E,,E,] | %40
 [_F,,_F,]2 [E,,E,] z | A,,,/ (A,,/_C,/A,/) A,,/ (A,/_C/A/) | A, z A z | %43
[K:treble]!mf! [=DFA=B][DFAB] [DFAB][DFAB] | [EAc][EAc] [EAc][EAc] | [_FA_c][FAc] [EA=c][EAc] | %46
 [EAc][EGd] [Ac] z |[K:bass] [=D,F,A,=B,][D,F,A,B,] [D,F,A,B,][D,F,A,B,] | %48
 [E,A,C][E,A,C] [E,A,C][E,A,C] | [_F,A,_C][F,A,C] [E,A,=C][E,A,C] | [E,A,C][E,G,D] [A,C][E,,E,] |: %51
[K:Db][M:2/4] [E,,E,][A,CE] [G,,G,][A,CE] | [F,,F,][A,CE] [E,,E,][C,,C,] | %53
 [D,,D,][A,DF] [A,,A,][A,DF] | [F,,F,][A,DF] [D,,D,][=D,,=D,] | [E,,E,][A,CE] [G,,G,][A,CE] | %56
 [F,,F,][A,CE] [E,,E,][C,,C,] | [D,,D,][A,DF] [A,,A,][A,DF] | [F,,F,][A,DF] [D,,D,][C,,C,] | %59
 [B,,,B,,][B,=DA] [=D,,=D,][B,DA] | [F,,F,][B,=DA] [B,,B,][B,DA] | [E,,E,][B,EG] [G,,G,][B,EG] | %62
 [E,,E,][B,EG] [G,,G,][B,EG] | =G,/B,D/ _F/D/B,/G,/ | [A,,A,][A,D=F] B,,[A,B,=D] | %65
 [E,B,_D][E,B,D] [A,C][A,C] |1 [D,D][A,DF] [A,DF][=D,,=D,] :|2 [D,D][A,,A,] [D,,D,][C,C] |: %68
[K:Ab] [D,D][A,DF] [A,DF][C,C] | [D,D][A,DF] [B,,B,][=B,,=B,] | [C,C][A,CE] [A,CE][E,,E,] | %71
 [A,,A,][E,A,C] [E,,E,][=A,,=A,] | [B,,B,][E,G,D] [E,,E,][=A,,=A,] | %73
 [B,,B,][E,G,D] [E,,E,][G,,G,] | [A,,A,][E,A,C] [E,,E,][E,A,C] | [A,,A,][E,A,C] [B,,B,][C,C] | %76
 [D,D][A,DF] [A,DF][C,C] | [D,D][A,DF] [B,,B,][=B,,=B,] | [C,C][A,CE] [A,CE][E,,E,] | %79
 [A,,A,][E,A,C] [E,,E,][E,A,C] | [D,,D,][D,,D,] [B,,,B,,][=D,,=D,] | %81
 [E,,E,][E,A,C] [E,,E,][=E,,=E,] | [F,,F,][F,,F,] [G,,G,][G,,G,] |1 [A,,A,][E,A,C] [B,,B,][C,C] :|2 %84
 [A,,A,][E,,E,] [A,,,A,,] |] %85

